X: 16289
T: Griffenfeld
R: reel
M: 4/4
K: Dmixolydian
A,2|:"D"D3/2E/ F/G3/2 A3/2A/ c/A3/2|"G"B3/2A/ "D"A/F3/2 D2 DF|"C"E2 C2 C2 EG|"D"F2 D2 D3 A,|
"D"D3/2E/ F/G3/2 "Am"A3/2A/ c/A3/2|"G"B3/2A/ "D"A/F3/2 D2 DF|"C"E2 C2 C2 EG||1 "D"F2 D2 D2 A,2:|2 "D"F2 D2 D2 A2||
|:"D"d2 d2 d2 ed|"Am"c2 A2 A3 B|"D"AGFE FGAd|"A"^c2 A2 A3 A|
"D"d2 d2 d2 ed|"Am"c2 A2 A3 B|"D"AGFE "C"FEDC||1 "D"D4 D2 A2:|2 "D"D4 D2||

